project/images/official/editable/459.svg

<svg width="101" height="51" xmlns="http://www.w3.org/2000/svg">
 <!-- Created with Method Draw - http://github.com/duopixel/Method-Draw/ -->

 <g>
  <title>background</title>
  <rect fill="#fff" id="canvas_background" height="53" width="103" y="-1" x="-1"/>
  <g display="none" overflow="visible" y="0" x="0" height="100%" width="100%" id="canvasGrid">
   <rect fill="url(#gridpattern)" stroke-width="0" y="0" x="0" height="100%" width="100%"/>
  </g>
 </g>
 <g>
  <title>Layer 1</title>
  <metadata id="svg_17">image/svg+xml</metadata>

  <g id="svg_19">
   <path fill="#ffffff" fill-rule="nonzero" id="svg_16" d="m0.67131,50.3267l99.65824,0l0,-49.82921l-99.65824,0l0,49.82921zm0,0"/>
   <path fill="none" stroke="#211e1e" stroke-width="0.2835" stroke-miterlimit="4" id="svg_15" d="m0.67131,50.3267l99.65824,0l0,-49.82921l-99.65824,0l0,49.82921"/>
   <path fill="#211e1e" fill-rule="nonzero" id="svg_14" d="m87.64371,48.51388c6.00351,0 10.87302,-4.86953 10.87302,-10.87304l0,-24.46141c0,-6.00352 -4.86952,-10.86911 -10.87302,-10.86911l-74.29048,0c-6.00352,0 -10.87302,4.8656 -10.87302,10.86911l0,24.46141c0,6.00352 4.86951,10.87304 10.87302,10.87304l74.29048,0"/>
   <path fill="#ffffff" fill-rule="nonzero" id="svg_13" d="m87.64371,45.79463c4.50459,0 8.15379,-3.6492 8.15379,-8.15379l0,-24.46141c0,-4.50067 -3.6492,-8.15379 -8.15379,-8.15379l-74.29048,0c-4.5046,0 -8.15772,3.65312 -8.15772,8.15379l0,24.46141c0,4.5046 3.65312,8.15379 8.15772,8.15379l74.29048,0"/>
   <path fill="#211e1e" fill-rule="nonzero" id="svg_12" d="m32.64686,20.36011l5.66605,-3.71982l-3.1744,-2.84873l-0.06671,-0.07455l-0.05494,-0.08633l-0.03924,-0.09025l-0.02355,-0.09417l-0.00392,-0.0981l0.00784,-0.0981l0.02746,-0.0981l0.04316,-0.09025l0.0981,-0.12949l0.12556,-0.0981l0.1491,-0.06671l0.16088,-0.01962l11.65387,-0.02355l0.17265,0.02355l0.1648,0.06278l0.14518,0.0981l0.12164,0.13342l0.07848,0.15695l0.03924,0.17657l-0.00392,0.17657l-0.04709,0.17265l-4.39473,10.58268l-0.05885,0.10595l-0.06671,0.09417l-0.07847,0.07847l-0.09025,0.06671l-0.10202,0.05101l-0.10595,0.03924l-0.11379,0.0157l-0.11772,0l-0.20011,-0.04316l-0.17658,-0.0981l-0.14518,-0.14518l-0.10202,-0.18443l-1.46753,-4.05728l-1.05944,0.71022c-4.23385,2.83696 -5.92503,8.22836 -4.07297,12.97624l1.62448,4.175l-10.90834,0l-0.15695,-5.16772l-0.60427,-20.19614l1.8089,0l3.52755,9.04059c0.56895,-0.51796 1.17715,-0.98882 1.82067,-1.40868"/>
   <path fill="#211e1e" fill-rule="nonzero" id="svg_11" d="m11.79153,38.09208l9.85674,-25.36782l1.81283,0l-0.18443,6.08984l-0.57681,19.27797l-10.90833,0"/>
  </g>
  <text xml:space="preserve" text-anchor="start" font-family="sans-serif" font-size="24" id="svg_20" y="33.81858" x="57.66814" stroke-width="0" stroke="#000" fill="#000000">param(text1)</text>
 </g>
</svg>

<?xml version="1.0" encoding="UTF-8" standalone="no"?>
<svg
   xmlns:dc="http://purl.org/dc/elements/1.1/"
   xmlns:cc="http://creativecommons.org/ns#"
   xmlns:rdf="http://www.w3.org/1999/02/22-rdf-syntax-ns#"
   xmlns:svg="http://www.w3.org/2000/svg"
   xmlns="http://www.w3.org/2000/svg"
   xmlns:sodipodi="http://sodipodi.sourceforge.net/DTD/sodipodi-0.dtd"
   xmlns:inkscape="http://www.inkscape.org/namespaces/inkscape"
   width="101pt"
   height="51pt"
   version="1.1"
   id="svg1083"
   sodipodi:docname="459.svg"
   viewBox="0 0 101 51"
   inkscape:version="1.0.2 (e86c870879, 2021-01-15, custom)">
  <metadata
     id="metadata1089">
    <rdf:RDF>
      <cc:Work
         rdf:about="">
        <dc:format>image/svg+xml</dc:format>
        <dc:type
           rdf:resource="http://purl.org/dc/dcmitype/StillImage" />
        <dc:title></dc:title>
      </cc:Work>
    </rdf:RDF>
  </metadata>
  <defs
     id="defs1087" />
  <sodipodi:namedview
     pagecolor="#ffffff"
     bordercolor="#666666"
     borderopacity="1"
     objecttolerance="10"
     gridtolerance="10"
     guidetolerance="10"
     inkscape:pageopacity="0"
     inkscape:pageshadow="2"
     inkscape:window-width="1920"
     inkscape:window-height="1017"
     id="namedview1085"
     showgrid="false"
     units="pt"
     inkscape:zoom="2.2805944"
     inkscape:cx="-3.5497449"
     inkscape:cy="50.146936"
     inkscape:window-x="3832"
     inkscape:window-y="-3"
     inkscape:window-maximized="1"
     inkscape:current-layer="svg1083" />
  <!-- Created with Method Draw - http://github.com/duopixel/Method-Draw/ -->
  <g
     id="g1081"
     transform="translate(0.32886134,0.32886199)">
    <title
       id="title1070">Layer 1</title>
    <metadata
       id="svg_17">image/svg+xml</metadata>
    <g
       id="svg_19">
      <path
         fill="#ffffff"
         fill-rule="nonzero"
         id="svg_16"
         d="m 0.67131,50.3267 h 99.65824 V 0.49749 H 0.67131 Z m 0,0" />
      <path
         fill="none"
         stroke="#211e1e"
         stroke-width="0.2835"
         stroke-miterlimit="4"
         id="svg_15"
         d="m 0.67131,50.3267 h 99.65824 V 0.49749 H 0.67131 V 50.3267" />
      <path
         fill="#211e1e"
         fill-rule="nonzero"
         id="svg_14"
         d="m 87.64371,48.51388 c 6.00351,0 10.87302,-4.86953 10.87302,-10.87304 V 13.17943 c 0,-6.00352 -4.86952,-10.86911 -10.87302,-10.86911 H 13.35323 c -6.00352,0 -10.87302,4.8656 -10.87302,10.86911 v 24.46141 c 0,6.00352 4.86951,10.87304 10.87302,10.87304 h 74.29048" />
      <path
         fill="#ffffff"
         fill-rule="nonzero"
         id="svg_13"
         d="m 87.64371,45.79463 c 4.50459,0 8.15379,-3.6492 8.15379,-8.15379 V 13.17943 c 0,-4.50067 -3.6492,-8.15379 -8.15379,-8.15379 H 13.35323 c -4.5046,0 -8.15772,3.65312 -8.15772,8.15379 v 24.46141 c 0,4.5046 3.65312,8.15379 8.15772,8.15379 h 74.29048" />
      <path
         fill="#211e1e"
         fill-rule="nonzero"
         id="svg_12"
         d="m 32.64686,20.36011 5.66605,-3.71982 -3.1744,-2.84873 -0.06671,-0.07455 -0.05494,-0.08633 -0.03924,-0.09025 -0.02355,-0.09417 -0.0039,-0.0981 0.0078,-0.0981 0.02746,-0.0981 0.04316,-0.09025 0.0981,-0.12949 0.12556,-0.0981 0.1491,-0.06671 0.16088,-0.01962 11.65387,-0.02355 0.17265,0.02355 0.1648,0.06278 0.14518,0.0981 0.12164,0.13342 0.07848,0.15695 0.03924,0.17657 -0.0039,0.17657 -0.04709,0.17265 -4.39473,10.58268 -0.05885,0.10595 -0.06671,0.09417 -0.07847,0.07847 -0.09025,0.06671 -0.10202,0.05101 -0.10595,0.03924 -0.11379,0.0157 H 42.75861 L 42.5585,24.7156 42.38192,24.6175 42.23674,24.47232 42.13472,24.28789 40.66719,20.23061 39.60775,20.94083 c -4.23385,2.83696 -5.92503,8.22836 -4.07297,12.97624 l 1.62448,4.175 H 26.25092 L 26.09397,32.92435 25.4897,12.72821 h 1.8089 l 3.52755,9.04059 c 0.56895,-0.51796 1.17715,-0.98882 1.82067,-1.40868" />
      <path
         fill="#211e1e"
         fill-rule="nonzero"
         id="svg_11"
         d="M 11.79153,38.09208 21.64827,12.72426 H 23.4611 L 23.27667,18.8141 22.69986,38.09207 H 11.79153" />
    </g>
    <text
       xml:space="preserve"
       text-anchor="start"
       font-family="sans-serif"
       font-size="24px"
       id="svg_20"
       y="33.818581"
       x="57.66814"
       stroke-width="0"
       stroke="#000000"
       fill="#000000">param(text1)</text>
  </g>
</svg>
